**kern	**kern
*staff2	*staff1
*clefF4	*clefG2
*k[f#]	*k[f#]
*met(c|)	*met(c|)
*M2/2	*M2/2
*G:	*G:
=-	=-
*met(c|)	*met(c|)
*M2/2	*M2/2
([4g	2GG 2G
32gLLL]	.
32b	.
32dd	.
32ggJJ	.
24ddL	.
24b	.
24gJJ)	.
8bb	4r
16.r	.
32g	.
(8.gL	4GG 4G
32f#LL	.
32gJJJ)	.
=162	=162
[4f#	2FF# 2F#
32f#LLL]	.
32a	.
32dd	.
32aJJ	.
32ff#LL	.
32dd	.
32aa	.
32ff#JJJ	.
8ddd	4r
16.r	.
32f#	.
(8.f#L	4FF# 4F#
32eLL	.
32f#JJJ)	.
=163	=163
8e	4EE 4E
(4eee	.
.	4r
16dddLL	.
16ccc#JJ)	.
(16bbLL	2A 2e 2g
16aa	.
16gg#	.
16aaJJ	.
16bb-LL	.
16bb	.
16ccc	.
16ccc#JJ)	.
=164	=164
(4.ccc#	([2d 2e 2g
16.eeeLL	.
32dddJJk)	.
8dd	8d]) 8f#
4d	8r
.	8D 8F#
[8d	8r
=165	=165
*	*^
16dLL]	2E 2G	2r
(16cn	.	.
16e	.	.
16gJJ	.	.
16ccnLL	.	.
16ee	.	.
16gg	.	.
16cccnJJ)	.	.
(8eee	4A	2F#
4ddd	.	.
.	4d	.
[8ccc)	.	.
*	*v	*v
=166	=166
(16cccLL]	8G
16bb	.
16ddd	8r
16ff#JJ	.
16aaLL	8B
16gg	.
16bb	8r
16dd#JJ)	.
(16ff#LL	8c
16ee	.
16gg	8r
16bJJ	.
16ddLL	4r
16cc	.
16b	.
16aJJ)	.
=167	=167
[4dd	[2D [2B
16ddLL]	.
16dd#J	.
24eeL	.
24cc	.
24aJJ	.
8g	8D] 8B]
8r	8r
8f#	8D 8A
8r	8r
=168	=168
(2c [2d 2f# 2a	(4G
.	4D)
8B) 8d] 8g	8GG
8r	8r
4r	4r
=169	=169
*-	*-
